src/assets/icons/adwaita/mimetypes/application-x-shellscript.svg

<?xml version="1.0" encoding="UTF-8" standalone="no"?>
<svg
   height="128px"
   viewBox="0 0 128 128"
   width="128px"
   version="1.1"
   id="application_x_shellscript_svg35"
   xmlns="http://www.w3.org/2000/svg"
   xmlns:svg="http://www.w3.org/2000/svg">
  <defs
     id="application_x_shellscript_defs39" />
  <linearGradient
     id="application_x_shellscript_a"
     gradientUnits="userSpaceOnUse"
     x1="36"
     x2="60"
     y1="68"
     y2="68">
    <stop
       offset="0"
       stop-color="#ed336c"
       id="application_x_shellscript_stop2" />
    <stop
       offset="1"
       stop-color="#ffa348"
       id="application_x_shellscript_stop4" />
  </linearGradient>
  <linearGradient
     id="application_x_shellscript_b"
     gradientTransform="matrix(0 1 -1 0 144 -32)"
     gradientUnits="userSpaceOnUse"
     x1="72"
     x2="96"
     y1="68"
     y2="68">
    <stop
       offset="0"
       stop-color="#404ce6"
       id="application_x_shellscript_stop7" />
    <stop
       offset="1"
       stop-color="#c061cb"
       id="application_x_shellscript_stop9" />
  </linearGradient>
  <linearGradient
     id="application_x_shellscript_c"
     gradientUnits="userSpaceOnUse"
     x1="68.84919"
     x2="95.257637"
     y1="84"
     y2="84">
    <stop
       offset="0"
       stop-color="#33d1c6"
       id="application_x_shellscript_stop12" />
    <stop
       offset="1"
       stop-color="#1c25d8"
       id="application_x_shellscript_stop14" />
  </linearGradient>
  <path
     style="display:inline;fill:#666666;fill-opacity:1;stroke:none;stroke-width:0.125;stroke-linejoin:round;stroke-miterlimit:4;stroke-dasharray:none;stroke-opacity:1;enable-background:new"
     clip-path="none"
     d="m 27.978072,8.0000006 h 50.000002 l 30.042896,29.9178934 10e-4,74.060006 c 8e-5,4.432 -3.6122,8.0221 -8.044196,8.0221 H 27.978011 c -4.431999,0 -7.999999,-3.568 -7.999999,-8.00001 V 16 c 0,-4.431999 3.568,-7.9999994 7.999999,-7.9999994 z"
     id="application_x_shellscript_path4411" />
  <path
     style="display:inline;vector-effect:none;fill:#9a9996;fill-opacity:1;stroke:none;stroke-width:0.125;stroke-linecap:butt;stroke-linejoin:round;stroke-miterlimit:4;stroke-dasharray:none;stroke-dashoffset:0;stroke-opacity:1;enable-background:new"
     d="M 77.978074,8.0000006 V 30.000002 c 0,4.432 3.610527,7.923448 8.042527,7.923448 l 22.000369,-0.0055 z"
     id="application_x_shellscript_path4413" />
  <g
     id="application_x_shellscript_path12555-6"
     transform="translate(38.374593,79.602767)" />
  <g
     aria-label="!"
     id="application_x_shellscript_text1187-5"
     style="font-size:91.6272px;font-family:FreeMono;-inkscape-font-specification:FreeMono;fill:#ffffff;stroke:#ffffff"
     transform="matrix(1.0095476,0,0,1.0095476,-165.52457,-91.427056)">
    <g
       id="application_x_shellscript_path1254">
      <path
         id="application_x_shellscript_path1029"
         style="color:#000000;-inkscape-font-specification:FreeMono;stroke:none;-inkscape-stroke:none"
         d="M 214.27369 145.553 L 214.20598 145.55493 C 213.86142 145.57333 213.51632 145.68174 213.19029 145.82772 C 212.86426 145.97371 212.56738 146.14133 212.34097 146.41005 C 211.81004 147.04011 211.65512 147.72317 211.6 148.51108 L 210.83775 159.46703 L 203.95038 159.46703 C 203.18686 159.46703 202.48764 159.58278 201.83967 160.06871 C 201.51069 160.31544 201.31888 160.65809 201.15287 161.02056 C 200.98686 161.38303 200.86461 161.7368 200.86461 162.10396 C 200.86461 162.46759 200.97645 162.83391 201.13739 163.20478 C 201.29833 163.57565 201.49229 163.9305 201.82033 164.18565 C 202.47038 164.69125 203.18405 164.80474 203.95038 164.80474 L 210.46242 164.80474 L 209.80077 174.3271 L 200.72531 174.3271 C 199.96183 174.3271 199.26069 174.44269 198.61267 174.92878 C 198.28407 175.17524 198.09192 175.51853 197.92587 175.88063 C 197.75982 176.24273 197.63761 176.59495 197.63761 176.9621 C 197.63761 177.32573 197.74945 177.69398 197.91039 178.06485 C 198.07133 178.43572 198.26528 178.79058 198.59332 179.04572 C 199.24286 179.55094 199.95822 179.66675 200.72531 179.66675 L 209.41771 179.66675 L 209.31517 181.20286 L 208.67674 190.30734 C 208.62354 191.06742 208.69265 191.77486 209.13138 192.45481 C 209.35462 192.80032 209.68465 193.01637 210.03487 193.20739 C 210.38509 193.39842 210.72655 193.54546 211.09312 193.5711 C 211.4558 193.5965 211.83173 193.5121 212.21329 193.37764 C 212.59485 193.24322 212.96289 193.07412 213.24059 192.76435 C 213.79056 192.1508 213.95521 191.44444 214.00864 190.68073 L 214.64128 181.57625 L 214.77283 179.66675 L 217.28014 179.66675 L 224.29133 179.66675 L 224.18879 181.20286 L 223.55423 190.30734 C 223.50063 191.07283 223.56703 191.77907 224.005 192.45674 C 224.22824 192.80224 224.5602 193.01637 224.91042 193.20739 C 225.26064 193.39842 225.6021 193.54546 225.96867 193.5711 C 226.33131 193.5965 226.7057 193.5121 227.0869 193.37764 C 227.4681 193.24319 227.83678 193.07382 228.1142 192.76435 C 228.66418 192.15082 228.82689 191.44446 228.88033 190.68073 L 229.51489 181.57625 L 229.64839 179.66675 L 236.4661 179.66675 C 237.26051 179.66675 237.96963 179.56222 238.63679 179.05733 C 238.97424 178.80197 239.16849 178.44304 239.33326 178.06872 C 239.49804 177.6944 239.61572 177.32823 239.61572 176.9621 C 239.61572 176.59039 239.48576 176.24265 239.31585 175.87676 C 239.14593 175.51087 238.95828 175.16255 238.61937 174.91524 C 237.95423 174.42983 237.25645 174.3271 236.4661 174.3271 L 230.02371 174.3271 L 230.68923 164.80474 L 239.69504 164.80474 C 240.48946 164.80474 241.19664 164.7002 241.86379 164.19532 C 242.20063 163.94041 242.39499 163.58256 242.56026 163.20865 C 242.72552 162.83475 242.84466 162.47068 242.84466 162.10396 C 242.84466 161.7316 242.71511 161.38291 242.54479 161.01669 C 242.37448 160.65047 242.18541 160.30449 241.84638 160.0571 C 241.18123 159.5717 240.4854 159.46703 239.69504 159.46703 L 231.06455 159.46703 L 231.80552 148.88641 C 231.86082 148.09426 231.80207 147.37805 231.34508 146.67703 L 231.34508 146.6751 C 231.11368 146.32158 230.77048 146.10559 230.4087 145.91478 C 230.04692 145.72398 229.69092 145.5805 229.3253 145.55493 C 228.95365 145.52893 228.60171 145.63267 228.22448 145.77742 C 227.84725 145.92222 227.48531 146.08877 227.21459 146.41005 C 226.68489 147.03867 226.53471 147.72007 226.47942 148.51108 L 225.71137 159.46703 L 220.50521 159.46703 L 216.189 159.46703 L 216.92997 148.88641 C 216.98527 148.09491 216.93041 147.37853 216.47339 146.67703 C 216.24221 146.32265 215.89699 146.10558 215.53509 145.91478 C 215.17318 145.72399 214.81918 145.58049 214.45362 145.55493 L 214.44975 145.55493 L 214.44588 145.55493 C 214.40738 145.55293 214.34468 145.55556 214.28723 145.55687 L 214.27369 145.553 z M 252.26255 146.33653 C 250.36454 146.33653 248.88852 147.79965 248.88852 149.63705 C 248.88852 150.00761 248.9601 150.32924 248.9601 150.7843 L 248.9601 150.79978 L 250.25438 174.22263 C 250.29298 174.95207 250.41902 175.54383 250.73998 176.00058 C 251.06128 176.4578 251.60689 176.70479 252.18904 176.70479 C 252.78694 176.70479 253.35229 176.49516 253.6942 176.03927 C 254.03577 175.58384 254.15884 174.98613 254.19721 174.22263 L 254.19721 174.2207 L 255.48955 150.79978 L 255.48955 150.7843 C 255.48955 150.51789 255.50718 150.28295 255.52438 150.09363 C 255.54158 149.90431 255.56307 149.79218 255.56307 149.63705 C 255.56307 147.79965 254.09994 146.33653 252.26255 146.33653 z M 215.81561 164.80474 L 220.50521 164.80474 L 225.33604 164.80474 L 224.67633 174.3271 L 217.28014 174.3271 L 215.14816 174.3271 L 215.7479 165.77787 L 215.81561 164.80474 z M 251.75954 184.60979 C 249.3608 184.60979 247.453 186.41708 247.453 188.70158 C 247.453 190.98607 249.36079 192.79144 251.75954 192.79144 L 252.69398 192.79144 C 255.09272 192.79144 257.07017 190.99798 257.07017 188.70158 C 257.07017 186.40518 255.09272 184.60979 252.69398 184.60979 L 251.75954 184.60979 z " />
    </g>
  </g>
  <g
     id="application_x_shellscript_path3816"
     transform="translate(87.921269,6.939792)" />
</svg>

<svg xmlns="http://www.w3.org/2000/svg" width="128" height="128" viewBox="0 0 128 128"><path d="M27.978 8h50l30.043 29.918.001 74.06c0 4.432-3.612 8.022-8.044 8.022h-72c-4.432 0-8-3.568-8-8V16c0-4.432 3.568-8 8-8" style="display:inline;fill:#666;fill-opacity:1;stroke:none;stroke-width:.125;stroke-linejoin:round;stroke-miterlimit:4;stroke-dasharray:none;stroke-opacity:1"/><path d="M77.978 8v22c0 4.432 3.61 7.923 8.043 7.923l22-.005z" style="display:inline;vector-effect:none;fill:#9a9996;fill-opacity:1;stroke:none;stroke-width:.125;stroke-linecap:butt;stroke-linejoin:round;stroke-miterlimit:4;stroke-dasharray:none;stroke-dashoffset:0;stroke-opacity:1"/><g aria-label="!" style="font-size:91.6272px;font-family:FreeMono;-inkscape-font-specification:FreeMono;fill:#fff;stroke:#fff"><path stroke="none" d="m214.274 145.553-.068.002c-.345.018-.69.127-1.016.273s-.623.313-.849.582c-.531.63-.686 1.313-.741 2.101l-.762 10.956h-6.888c-.763 0-1.462.116-2.11.602-.33.246-.521.59-.687.952s-.288.716-.288 1.083c0 .364.111.73.272 1.1.161.372.355.726.683.982.65.505 1.364.619 2.13.619h6.512l-.661 9.522h-9.076c-.763 0-1.464.116-2.112.602-.329.246-.521.59-.687.952s-.288.714-.288 1.081c0 .364.111.732.272 1.103.161.37.355.726.683.98.65.506 1.365.622 2.132.622h8.693l-.103 1.536-.638 9.104c-.053.76.016 1.468.454 2.148.224.345.554.561.904.752s.692.338 1.058.364c.363.025.739-.059 1.12-.193.382-.135.75-.304 1.028-.614.55-.613.714-1.32.768-2.083l.632-9.105.132-1.91h9.518l-.102 1.537-.635 9.104c-.053.766.013 1.472.451 2.15.223.345.555.56.905.75.35.191.692.338 1.059.364.362.025.737-.059 1.118-.193.381-.135.75-.304 1.027-.614.55-.613.713-1.32.766-2.083l.635-9.105.133-1.91h6.818c.795 0 1.504-.104 2.17-.609.338-.255.532-.614.697-.988.165-.375.283-.74.283-1.107 0-.372-.13-.72-.3-1.085-.17-.366-.358-.714-.697-.962-.665-.485-1.363-.588-2.153-.588h-6.442l.665-9.522h9.006c.794 0 1.502-.105 2.169-.61.337-.255.531-.612.696-.986.166-.374.285-.738.285-1.105 0-.372-.13-.721-.3-1.087-.17-.367-.36-.713-.699-.96-.665-.485-1.36-.59-2.151-.59h-8.63l.74-10.58c.056-.793-.003-1.509-.46-2.21v-.002c-.231-.353-.575-.57-.936-.76s-.718-.334-1.084-.36c-.371-.026-.723.078-1.1.222s-.74.312-1.01.633c-.53.629-.68 1.31-.736 2.101l-.768 10.956h-9.522l.741-10.58c.055-.792 0-1.508-.457-2.21-.23-.354-.576-.571-.938-.762s-.716-.335-1.081-.36h-.008c-.039-.002-.101 0-.159.002zm37.989.784c-1.898 0-3.374 1.463-3.374 3.3 0 .37.071.692.071 1.147v.016l1.294 23.423c.039.73.165 1.32.486 1.778s.867.704 1.449.704c.598 0 1.163-.21 1.505-.666.342-.455.465-1.053.503-1.816v-.002l1.293-23.421v-.016c0-.266.017-.501.034-.69.018-.19.04-.302.04-.457 0-1.837-1.464-3.3-3.301-3.3m-36.447 18.468h9.52l-.66 9.522h-9.528l.6-8.55zm35.944 19.805c-2.4 0-4.307 1.807-4.307 4.092s1.908 4.09 4.307 4.09h.934c2.399 0 4.376-1.794 4.376-4.09 0-2.297-1.977-4.092-4.376-4.092z" style="color:#000;-inkscape-font-specification:FreeMono;stroke:none;-inkscape-stroke:none" transform="translate(-165.525 -91.427)scale(1.00955)"/></g></svg>
